X:1
T:James Gibb editions
T:Occhi dolci e soavi - Marenzio
T:#
%%score [ 1 2 3 ]
L:1/8
Q:1/4=130
M:4/4
K:C
V:1 treble nm="Soprano" snm="S"
V:2 treble nm="Alto" snm="A"
V:3 bass nm="Bass" snm="B"
V:1
"^Occhi dolci e soavi""^Luca Marenzio\n(1556-99)" A8 | A8 | A4 A2 A2 | _B8 | A8 | A2 =B4 c2 | %6
w: Oc-|chi|dol- ci~~e so-|a-|vi,|Ch'a- ve- te|
w: I|vo-|stri gi- ri~~e|lu-|mi|Son at- ti~~a~~i-|
w: Ma|se~~in|mi- rar vo-|le-|te|Al- tri~~a- man-|
 c4 A2 c2- | c2 d2 e4- |[M:4/4] e2 c2 B4 | A8 | A8 | A8 | A4 A2 A2 | _B8 | A8 | A2 =B4 c2 | %16
w: del mio~~af flit\-|* to cor|* le chia-|vi,|Oc-|chi|dol- ci~~e so-|a-|vi,|Ch'a- ve- te|
w: na- mo- ra\-|* ti mon\-|* ti~~e~~i fiu-|mi,|I|vo-|stri gi- ri~~e|lu-|mi|Son at- ti~~a~~i-|
w: ti ti- rar|* sot- to|* la re-|te,|Ma|se~~in|mi- rar vo-|le-|te|Al- tri~~a- man-|
 c4 A2 c2- | c2 d2 e4- | e2 c2 B4 | A2 c2 BAGF | E2 Ee dcBA | G2 Gg fedc | B8 | A8 | A2 AB c2 A2 | %25
w: del mio~~af flit\-|* to cor|* le chia-|vi, Non mi per- se- gui-|ta- te, non mi per- se- gui-|ta- te, non mi per- se- gui-|ta-|te,|Ch'ho ge- lo- sia del|
w: na- mo- ra\-|* ti mon\-|* ti~~e~~i fiu-|mi, Non che l'al- me vi-|ven- ti, non che l'al- me vi-|ven- ti, non che l'al- me vi-|ven-|ti,|Che fan l'a- mor coi|
w: ti ti- rar|* sot- to|* la re-|te, Fa- te ch'or io tra-|boc- chi, fa- te ch'or io tra-|boc- chi, fa- te ch'or io tra-|boc-|chi,|Pri- ma ch'io veg- gia~il|
 G3 G G2 F2 | E8 | D8 | A2 AB c2 A2 | G3 G G2 F2 | E8 | D8 |] %32
w: sol che voi mi-|ra-|te.|Ch'ho ge- lo- sia del|sol che voi mi-|ra-|te.|
w: vo- stri sguar- di~~at-|ten-|ti.|Che fan l'a- mor coi|vo- stri sguar- di~~at-|ten-|ti.|
w: mio do- lor su-|gli~~oc-|chi.|Pri- ma ch'io veg- gia~il|mio do- lor su-|gli~~oc-|chi.|
V:2
 F8 | F8 | F4 E2 ^F2 | G8 | ^F8 | ^F2 G4 A2 | A6 G2 | A2 B2 c4- |[M:4/4] c2 A4 ^G2 | A8 | F8 | F8 | %12
w: Oc-|chi|dol- ci~~e so-|a-|vi,|Ch'a- ve- te|del mio~~af-|flit- to cor|* le chia-|vi,|Oc-|chi|
w: I|vo-|stri gi- ri~~e|lu-|mi|Son at- ti~~a~~i-|na- mo-|ra- ti mon\-|* ti~~e~~i fiu-|mi,|I|vo-|
w: Ma|se~~in|mi- rar vo-|le-|te|Al- tri~~a- man-|ti ti-|rar sot- to|* la re-|te,|Ma|se~~in|
 F4 E2 ^F2 | G8 | ^F8 | ^F2 G4 A2 | A6 G2 | A2 B2 c4- | c2 A4 ^G2 | A2 z2 z4 | z2 c2 BAGF | %21
w: dol- ci~~e so-|a-|vi,|Ch'a- ve- te|del mio~~af-|flit- to cor|* le chia-|vi,|Non mi per- se- gui-|
w: stri gi- ri~~e|lu-|mi|Son at- ti~~a~~i-|na- mo-|ra- ti mon\-|* ti~~e~~i fiu-|mi,|Non che l'al- me vi-|
w: mi- rar vo-|le-|te|Al- tri~~a- man-|ti ti-|rar sot- to|* la re-|te,|Fa- te ch'or io tra-|
 E2 Ee dcBA | G8 | ^F4 =F2 FG | A2 F2 E4- | E2 D2 E2 (D2- | D2 ^CB,) C4 | D4 F2 FG | A2 F2 E4- | %29
w: ta- te, non mi per- se- gui-|ta-|te, Ch'ho ge- lo-|sia del sol|* che voi mi\-|* * * ra-|te, Ch'ho ge- lo-|sia del sol|
w: ven- ti, non che l'al- me vi-|ven-|ti, Che fan l'a-|mor coi vo\-|* stri sguar- di~~at\-|* * * ten-|ti. Che fan l'a|mor coi vo\-|
w: boc- chi, fa- te ch'or io tra-|boc-|chi, Pri- ma ch'io|veg- gia~il mio|* do- lor su\-|* * * gli~~oc-|chi. Pri- ma ch'io|veg- gia~il mio|
 E2 D2 E2 (D2- | D2 ^CB,) C4 | D8 |] %32
w: * che voi mi\-|* * * ra-|te.|
w: * stri sguar- di~~at\-|* * * ten-|ti.|
w: * do- lor su\-|* * * gli~~oc-|chi.|
V:3
 D,8 | D,8 | D,4 ^C,2 D,2 | G,,8 | D,8 | D,2 G,4 F,2 | F,6 E,2 | F,2 D,2 C,2 (A,,2 | %8
w: Oc-|chi|dol- ci~~e so-|a-|vi,|Ch'a- ve- te|del mio~~af-|flit- to cor le|
w: I|vo-|stri gi- ri~~e|lu-|mi|Son at- ti~~a~~i-|na- mo-|ra- ti mon- ti~~e~~i|
w: Ma|se~~in|mi- rar vo-|le-|te|Al- tri~~a- man-|ti ti-|rar sot- to la|
[M:4/4] C,3 D,) E,4 | A,,8 | D,8 | D,8 | D,4 ^C,2 D,2 | G,,8 | D,8 | D,2 G,4 F,2 | F,6 E,2 | %17
w: * * chia-|vi,|Oc-|chi|dol- ci~~e so-|a-|vi,|Ch'a- ve- te|del mio~~af-|
w: * * fiu-|mi,|I|vo-|stri gi- ri~~e|lu-|mi|Son at- ti~~a~~i-|na- mo-|
w: * * re-|te,|Ma|se~~in|mi- rar vo-|le-|te|Al- tri~~a- man-|ti ti-|
 F,2 D,2 C,2 (A,,2 | C,3 D,) E,4 | A,,2 A,2 G,F,E,D, | C,4 G,,2 G,,2 | C,4 D,4 | E,3 ^F, G,4 | %23
w: flit- to cor le|* * chia-|vi, Non mi per- se- gui-|ta- te, non|mi per-|se- gui- ta-|
w: ra- ti mon- ti~~e~~i|* * fiu-|mi, Non che l'al- me vi-|ven- ti, non|che l'al-|me vi- ven-|
w: rar sot- to la|* * re-|te, Fa- te ch'or io tra-|boc- chi, fa-|te ch'or|io tra- boc-|
 D,4 D,2 D,E, | F,2 D,2 C,4- | C,2 B,,2 C,2 D,2 | A,,8 | D,4 D,2 D,E, | F,2 D,2 C,4- | %29
w: te, Ch'ho ge- lo-|sia del sol|* che voi mi-|ra-|te. Ch'ho ge- lo-|sia del sol|
w: ti, Che fan l'a-|mor coi vo\-|* stri sguar- di~~at-|ten-|ti. Che fan l'a|mor coi vo\-|
w: chi, Pri- ma ch'io|veg- gia~il mio|* do- lor su-|gli~~oc-|chi. Pri- ma ch'io|veg- gia~il mio|
 C,2 B,,2 C,2 D,2 | A,,8 | D,8 |] %32
w: * che voi mi-|ra-|te.|
w: * stri sguar- di~~at-|ten-|ti.|
w: * do- lor su-|gli~~oc-|chi.|

